X:49
T:Gavotte pourlet
C:trad.
A:Bretagne
O:France
Z:S. Piron
M:4/4
L:1/8
Q:1/4=150
K:Cm
|:B,FFE FGFA|GFED C2C2:||:B,C/2D/2 ED CD B,C|EDCB, A,2B,2:|
|:B,FFE DE F2|GAGF D2C2:||:B,CDC B,C D2|CDED C2B,2:|
|:B,FFE FGFE|DEFE D2C2:||:B,CDC B,CD2|CDED C2B,2:|
|:B,FFE DE F2|FBBA G2F2:||:B,DDC B,CD2|CDED C2B,2:|
|:B,FFE DEFD|EFGF E2D2:||:B,DDC B,C D2|CDED C2B,2:|
|:F2FE/2D/2 CD B,2|F2FE D2C2:||:F2FE/2D/2 CD E2|DCB,C DB, C2|
F2FE/2D/2 CD E2|FE/2D/2 CD B,2B,2||:FE/2D/2 CE D2 DF|FE/2D/2 CE D2D2:|
|:FE/2D/2 CE DC B,C|DEDE C2 CF:||
